Numix-GalliumOS/24/categories/applications-libraries.svg

<?xml version="1.0" encoding="UTF-8" standalone="no"?>
<svg
   xmlns:dc="http://purl.org/dc/elements/1.1/"
   xmlns:cc="http://creativecommons.org/ns#"
   xmlns:rdf="http://www.w3.org/1999/02/22-rdf-syntax-ns#"
   xmlns:svg="http://www.w3.org/2000/svg"
   xmlns="http://www.w3.org/2000/svg"
   xmlns:sodipodi="http://sodipodi.sourceforge.net/DTD/sodipodi-0.dtd"
   xmlns:inkscape="http://www.inkscape.org/namespaces/inkscape"
   width="24"
   height="24"
   viewBox="0 0 19.2 19.2"
   id="svg2"
   version="1.1"
   inkscape:version="0.91 r"
   sodipodi:docname="applications-libraries.svg">
  <metadata
     id="metadata16">
    <rdf:RDF>
      <cc:Work
         rdf:about="">
        <dc:format>image/svg+xml</dc:format>
        <dc:type
           rdf:resource="http://purl.org/dc/dcmitype/StillImage" />
        <dc:title />
      </cc:Work>
    </rdf:RDF>
  </metadata>
  <defs
     id="defs14" />
  <sodipodi:namedview
     pagecolor="#ffffff"
     bordercolor="#666666"
     borderopacity="1"
     objecttolerance="10"
     gridtolerance="10"
     guidetolerance="10"
     inkscape:pageopacity="0"
     inkscape:pageshadow="2"
     inkscape:window-width="1680"
     inkscape:window-height="1026"
     id="namedview12"
     showgrid="true"
     inkscape:zoom="19.873684"
     inkscape:cx="14.085289"
     inkscape:cy="19.517547"
     inkscape:window-x="0"
     inkscape:window-y="24"
     inkscape:window-maximized="1"
     inkscape:current-layer="svg2">
    <inkscape:grid
       type="xygrid"
       id="grid4144" />
  </sodipodi:namedview>
  <path
     style="fill:#b2a546"
     d="M 3.6171875 3 C 3.2739745 3 3 3.2658599 3 3.5976562 L 3 20.402344 C 3 20.73414 3.2739745 21 3.6171875 21 L 7.3789062 21 C 7.724555 21 8 20.73414 8 20.402344 L 8 3.5976562 C 8 3.2658599 7.724555 3 7.3789062 3 L 3.6171875 3 z M 4 4 L 7 4 L 7 12 L 4 12 L 4 4 z M 5.5 15.25 A 1.25 1.25 0 0 1 6.75 16.5 A 1.25 1.25 0 0 1 5.5 17.75 A 1.25 1.25 0 0 1 4.25 16.5 A 1.25 1.25 0 0 1 5.5 15.25 z "
     transform="scale(0.8,0.8)"
     id="path6" />
  <path
     style="fill:#b2a546"
     d="M 9.5195312 3 C 9.2311874 3 9 3.2658599 9 3.5976562 L 9 20.402344 C 9 20.73414 9.2311874 21 9.5195312 21 L 11.478516 21 C 11.768905 21 12 20.73414 12 20.402344 L 12 3.5976562 C 12 3.2658599 11.768905 3 11.478516 3 L 9.5195312 3 z M 10 4 L 11 4 L 11 12 L 10 12 L 10 4 z M 10.5 15.75 A 0.75000003 0.75000003 0 0 1 11.25 16.5 A 0.75000003 0.75000003 0 0 1 10.5 17.25 A 0.75000003 0.75000003 0 0 1 9.75 16.5 A 0.75000003 0.75000003 0 0 1 10.5 15.75 z "
     transform="scale(0.8,0.8)"
     id="path8" />
  <path
     style="fill:#b2a546"
     d="m 10.627238,2.9594231 c -0.297087,0.079085 -0.480739,0.3467268 -0.412039,0.6014461 l 3.479498,12.9009228 c 0.0687,0.254719 0.362448,0.395277 0.659534,0.316193 l 2.017881,-0.537162 c 0.299192,-0.07965 0.482248,-0.347128 0.413548,-0.601847 L 13.306161,2.7380531 c -0.0687,-0.2547193 -0.36185,-0.3954363 -0.661044,-0.3157908 l -2.017879,0.5371608 z m 0.444008,0.7046205 1.545482,-0.4114079 1.656442,6.1415826 -1.545482,0.411408 -1.656442,-6.1415827 z m 3.153876,8.6228214 a 0.8,0.79477928 0 0 1 0.979796,0.561994 0.8,0.79477928 0 0 1 -0.565685,0.973402 0.8,0.79477928 0 0 1 -0.979796,-0.561994 0.8,0.79477928 0 0 1 0.565685,-0.973402 z"
     id="path8-2"
     inkscape:connector-curvature="0" />
</svg>

<svg xmlns="http://www.w3.org/2000/svg" width="24" height="24" viewBox="0 0 19.2 19.2">
 <path d="m 3.617 3 c -0.343 0 -0.617 0.266 -0.617 0.598 l 0 16.805 c 0 0.332 0.274 0.598 0.617 0.598 l 3.762 0 c 0.346 0 0.621 -0.266 0.621 -0.598 l 0 -16.805 c 0 -0.332 -0.275 -0.598 -0.621 -0.598 l -3.762 0 z m 0.383 1 l 3 0 l 0 8 l -3 0 l 0 -8 z m 1.5 11.25 a 1.25 1.25 0 0 1 1.25 1.25 a 1.25 1.25 0 0 1 -1.25 1.25 a 1.25 1.25 0 0 1 -1.25 -1.25 a 1.25 1.25 0 0 1 1.25 -1.25 z" transform="scale(0.8,0.8)" style="fill:#b2a546"/>
 <path d="m 9.52 3 c -0.288 0 -0.52 0.266 -0.52 0.598 l 0 16.805 c 0 0.332 0.231 0.598 0.52 0.598 l 1.959 0 c 0.29 0 0.521 -0.266 0.521 -0.598 l 0 -16.805 c 0 -0.332 -0.231 -0.598 -0.521 -0.598 l -1.959 0 z m 0.48 1 l 1 0 l 0 8 l -1 0 l 0 -8 z m 0.5 11.75 a 0.75 0.75 0 0 1 0.75 0.75 a 0.75 0.75 0 0 1 -0.75 0.75 a 0.75 0.75 0 0 1 -0.75 -0.75 a 0.75 0.75 0 0 1 0.75 -0.75 z" transform="scale(0.8,0.8)" style="fill:#b2a546"/>
 <path d="m 10.627 2.959 c -0.297 0.079 -0.481 0.347 -0.412 0.601 l 3.479 12.901 c 0.069 0.255 0.362 0.395 0.66 0.316 l 2.02 -0.537 c 0.299 -0.08 0.482 -0.347 0.414 -0.602 l -3.479 -12.901 c -0.069 -0.255 -0.362 -0.395 -0.661 -0.316 l -2.02 0.537 z m 0.444 0.705 1.545 -0.411 1.656 6.142 -1.545 0.411 -1.656 -6.142 z m 3.154 8.623 a 0.8 0.795 0 0 1 0.98 0.562 0.8 0.795 0 0 1 -0.566 0.973 0.8 0.795 0 0 1 -0.98 -0.562 0.8 0.795 0 0 1 0.566 -0.973 z" style="fill:#b2a546"/>
</svg>
